packages/ckeditor5-icons/theme/icons/file-upload.svg

<svg viewBox="0 0 20 20" xmlns="http://www.w3.org/2000/svg">
<path d="M6.14642 11.2207C6.43932 10.9279 6.91411 10.9278 7.20697 11.2207L10.8837 14.8975C11.1764 15.1903 11.1764 15.6652 10.8837 15.958C10.5909 16.2508 10.1161 16.2507 9.82318 15.958L7.42669 13.5615V19.251C7.42669 19.6651 7.09081 20.0009 6.67669 20.001C6.26248 20.001 5.92669 19.6652 5.92669 19.251V13.5615L3.53021 15.958C3.23735 16.2508 2.76256 16.2508 2.46966 15.958C2.17677 15.6651 2.17679 15.1904 2.46966 14.8975L6.14642 11.2207Z"/>
<path fill-rule="evenodd" clip-rule="evenodd" d="M17.7499 5.94043V17.5508C17.7499 18.0754 17.3244 18.5009 16.7997 18.501H10.4999C10.0857 18.501 9.74993 18.1652 9.74993 17.751C9.74993 17.3368 10.0857 17.001 10.4999 17.001H16.2499V7.00098H11.7001C11.1755 7.00098 10.7499 6.57545 10.7499 6.05078V1.50098H4.74993V10.1609L3.24993 11.6609V0.951172C3.24993 0.426502 3.67546 0.000976562 4.20013 0.000976562H11.8105L17.7499 5.94043ZM12.2499 5.50098H15.1894L12.2499 2.56152V5.50098Z"/>
</svg>

<svg xmlns="http://www.w3.org/2000/svg" viewBox="0 0 20 20"><path d="M6.146 11.22a.75.75 0 0 1 1.061 0l3.677 3.678a.75.75 0 0 1-1.06 1.06l-2.397-2.396v5.689a.75.75 0 0 1-1.5 0v-5.69L3.53 15.959a.75.75 0 0 1-1.06-1.06z"/><path fill-rule="evenodd" d="M17.75 5.94v11.61a.95.95 0 0 1-.95.951h-6.3a.75.75 0 0 1 0-1.5h5.75v-10H11.7a.95.95 0 0 1-.95-.95V1.5h-6v8.66l-1.5 1.5V.95A.95.95 0 0 1 4.2 0h7.61zm-5.5-.439h2.94l-2.94-2.94z" clip-rule="evenodd"/></svg>
